X:1
T:Silent Night/Stille Nacht
T:Silent Night
%%score [ 1 2 3 4 ]
L:1/8
Q:1/4=40
M:6/8
K:C
V:1 treble nm="Soprano" snm="S."
V:2 treble nm="Alto" snm="A."
V:3 bass nm="Tenor" snm="T."
V:4 bass nm="Bass" snm="B."
V:1
"^\n" (G>A)G E3 | (G>A)G E3 | d2 d B3 | c2 c G3 | A2 A (c>B)A | (G>A)G E3 | A2 A (c>B)A | %7
 (G>A)G E3 | d2 d f>dB | (c3 e3) | cGE G>FD | C3-"^2x" C3 :| %12
V:2
 (E>F)E C3 | (E>F)E C3 | F2 F F3 | E2 E E3 | F2 F (A>G)F | (E>F)E C3 | F2 F (A>G)F | (E>F)E C3 | %8
 F2 F D>FF | (E3 G3) | E2 C B,>B,B, | C3-"^2x" C3 :| %12
V:3
 C2 C G,3 | C2 C G,3 | B,2 B, D3 | C2 C C3 | C2 C C2 C | C>CC G,3 | C2 C C2 C | C>CC G,3 | %8
 G,2 B, B,>B,D | C3- C3 | G,2 G, G,>G,F, | E,3-"^2x" E,3 :| %12
V:4
 C,2 C, C,3 | C,2 C, C,3 | G,2 G, G,3 | C,2 C, C,3 | F,2 F, F,2 F, | C,>C,C, C,3 | F,2 F, F,2 F, | %7
 C,>C,C, C,3 | G,,2 G,, G,,>G,,G,, | C,3- C,3 | C,2 C, G,,>G,,G,, | C,3-"^2x" C,3 :| %12

